X:0839
T:The Banks of Spey.
M:C
L:1/8
Q:1/4=120
I: :: ||
Z:Jack Campin * www.campin.me.uk * 2009
K:A Minor
  A2 A>B A>Bc>e|dcBA  {A}G2G2|A2 A>B A>Bc>d|e>cde     g2g2|
  a>ged  d<eg<a|e<gg>B   G2GB|A<EA>B c>de>g|e>dc>B {B}A2A||
c|A<EA>c A<EA>c|BcdB     G2GB|A<EA>c A<Ec>d|e>cde    Tg2g2|
  a>gec  d<eg<a|e<gg>B   G2GB|AEAB   c>deg |e<dcB     A2A|]

